storage/app/icons/phosphoricons/regular/elevator.svg

<svg xmlns="http://www.w3.org/2000/svg" fill="currentColor" viewBox="0 0 256 256"><path d="M208 32H48a16 16 0 0 0-16 16v160a16 16 0 0 0 16 16h160a16 16 0 0 0 16-16V48a16 16 0 0 0-16-16m-32 80v96h-40v-96Zm-56 96H80v-96h40Zm88 0h-16V104a8 8 0 0 0-8-8H72a8 8 0 0 0-8 8v104H48V48h160zM152 72a8 8 0 0 1-8 8h-32a8 8 0 0 1 0-16h32a8 8 0 0 1 8 8"/></svg>

<svg xmlns="http://www.w3.org/2000/svg" viewBox="0 0 256 256" fill="currentColor"><path d="M208,32H48A16,16,0,0,0,32,48V208a16,16,0,0,0,16,16H208a16,16,0,0,0,16-16V48A16,16,0,0,0,208,32Zm-32,80v96H136V112Zm-56,96H80V112h40Zm88,0H192V104a8,8,0,0,0-8-8H72a8,8,0,0,0-8,8V208H48V48H208V208ZM152,72a8,8,0,0,1-8,8H112a8,8,0,0,1,0-16h32A8,8,0,0,1,152,72Z"/></svg>
